src/assets/img/tools/apollographql.svg

<svg width="24" height="24" viewBox="0 0 24 24" fill="none" xmlns="http://www.w3.org/2000/svg">
    <g clip-path="url(#clip0)">
        <path d="M12 -5.80116e-06C5.372 -5.80116e-06 0 5.37299 0 12C0 18.628 5.372 24 12 24C18.627 24 24 18.628 24 12C24.0005 10.869 23.8412 9.74351 23.527 8.65699C23.4681 8.51392 23.3562 8.39913 23.2147 8.3366C23.0732 8.27407 22.9129 8.26862 22.7675 8.32141C22.6221 8.37419 22.5026 8.48112 22.4341 8.61986C22.3657 8.75861 22.3534 8.91844 22.4 9.06599H22.398C22.663 10.009 22.8 10.994 22.8 12C22.8039 13.4189 22.5264 14.8244 21.9834 16.1353C21.4405 17.4462 20.643 18.6364 19.637 19.637C18.6364 20.643 17.4462 21.4406 16.1353 21.9835C14.8244 22.5264 13.4189 22.8039 12 22.8C10.5811 22.8039 9.17558 22.5264 7.86469 21.9834C6.5538 21.4405 5.36361 20.643 4.363 19.637C3.35694 18.6364 2.55935 17.4463 2.01642 16.1354C1.47348 14.8245 1.19599 13.4189 1.2 12C1.1961 10.5811 1.47364 9.17557 2.01657 7.86469C2.5595 6.5538 3.35703 5.36361 4.363 4.36299C5.36354 3.35693 6.55372 2.55935 7.86463 2.01641C9.17553 1.47348 10.5811 1.19598 12 1.19999C14.576 1.19999 17.013 2.09599 18.958 3.73999C18.8351 4.052 18.8228 4.39673 18.9233 4.71667C19.0238 5.03662 19.231 5.31244 19.5102 5.49813C19.7895 5.68382 20.1239 5.76816 20.4578 5.73707C20.7918 5.70599 21.1049 5.56136 21.3451 5.32731C21.5853 5.09327 21.7379 4.78395 21.7776 4.45095C21.8173 4.11796 21.7417 3.78142 21.5633 3.49746C21.3849 3.2135 21.1145 2.9993 20.7973 2.89057C20.48 2.78184 20.1351 2.78517 19.82 2.89999C17.6461 1.02576 14.8703 -0.00361478 12 -5.80116e-06ZM10.56 5.87999L6.36 16.782H8.99L9.677 14.934H13.646L12.927 12.892H10.314L12.014 8.20099L15.038 16.781H17.669L13.47 5.87999H10.56Z"
              fill="#311C87"/>
    </g>
    <defs>
        <clipPath id="clip0">
            <rect width="24" height="24" fill="white"/>
        </clipPath>
    </defs>
</svg>

<svg width="24" height="24" fill="none" xmlns="http://www.w3.org/2000/svg"><g clip-path="url(#clip0)"><path d="M12 0C5.372 0 0 5.373 0 12c0 6.628 5.372 12 12 12 6.627 0 12-5.372 12-12 0-1.131-.159-2.256-.473-3.343a.6.6 0 00-1.127.409h-.002c.265.943.402 1.928.402 2.934a10.729 10.729 0 01-3.163 7.637A10.73 10.73 0 0112 22.8a10.729 10.729 0 01-7.637-3.163A10.728 10.728 0 011.2 12a10.73 10.73 0 013.163-7.637A10.728 10.728 0 0112 1.2c2.576 0 5.013.896 6.958 2.54a1.466 1.466 0 10.862-.84A11.953 11.953 0 0012 0zm-1.44 5.88l-4.2 10.902h2.63l.687-1.848h3.969l-.719-2.042h-2.613l1.7-4.691 3.024 8.58h2.631L13.47 5.88h-2.91z" fill="#311C87"/></g><defs><clipPath id="clip0"><path fill="#fff" d="M0 0h24v24H0z"/></clipPath></defs></svg>
